svgs/duotone/face-angry-horns.svg

<svg xmlns="http://www.w3.org/2000/svg" viewBox="0 0 640 512"><!--! Font Awesome Pro 6.1.1 by @fontawesome - https://fontawesome.com License - https://fontawesome.com/license (Commercial License) Copyright 2022 Fonticons, Inc. --><defs><style>.fa-secondary{opacity:.4}</style></defs><path class="fa-primary" d="M566.1 185.1C550.5 131 517.6 84.28 473.8 51.3C490.8 47.99 513.5 42.74 536.8 35.78C566.6 26.86 595.8 15.55 615.1 2.687C620.5-.9025 627.5-.8952 632.9 2.706C638.3 6.307 640.1 12.79 639.7 19.14C633.5 50.11 610.4 125.8 566.1 185.1V185.1zM103.3 35.78C126.5 42.74 149.2 47.99 166.2 51.3C122.4 84.28 89.5 131 73.94 185.1C29.62 125.8 6.507 50.11 .3114 19.14C-.9577 12.79 1.721 6.307 7.098 2.706C12.47-.8948 19.49-.9022 24.88 2.688C44.17 15.55 73.41 26.86 103.3 35.78V35.78zM208.4 272C208.4 263.2 211.9 255.2 217.7 249.4L186.9 239.2C178.6 236.4 174 227.3 176.8 218.9C179.6 210.6 188.7 206 197.1 208.8L293.1 240.8C301.4 243.6 305.1 252.7 303.2 261.1C300.4 269.4 291.3 273.1 282.9 271.2L272.1 267.6C272.3 269 272.4 270.5 272.4 272C272.4 289.7 258 304 240.4 304C222.7 304 208.4 289.7 208.4 272L208.4 272zM432.4 272C432.4 289.7 418 304 400.4 304C382.7 304 368.4 289.7 368.4 272C368.4 270.4 368.5 268.8 368.7 267.3L357.1 271.2C348.7 273.1 339.6 269.4 336.8 261.1C334 252.7 338.6 243.6 346.9 240.8L442.9 208.8C451.3 206 460.4 210.6 463.2 218.9C465.1 227.3 461.4 236.4 453.1 239.2L422.9 249.2C428.7 255 432.4 263.1 432.4 272L432.4 272z"/><path class="fa-secondary" d="M576 256C576 397.4 461.4 512 320 512C178.6 512 64 397.4 64 256C64 114.6 178.6 0 320 0C461.4 0 576 114.6 576 256zM403.9 389.3C387.8 371.4 359.7 352 320 352C280.3 352 252.2 371.4 236.1 389.3C230.2 395.9 230.7 405.1 237.3 411.9C243.9 417.8 253.1 417.3 259.9 410.7C271.6 397.7 291.5 384 319.1 384C348.5 384 368.4 397.7 380.1 410.7C386 417.3 396.1 417.8 402.7 411.9C409.3 405.1 409.8 395.9 403.9 389.3H403.9zM240.4 304C258 304 272.4 289.7 272.4 272C272.4 270.5 272.3 269 272.1 267.6L282.9 271.2C291.3 273.1 300.4 269.4 303.2 261.1C305.1 252.7 301.4 243.6 293.1 240.8L197.1 208.8C188.7 206 179.6 210.6 176.8 218.9C174 227.3 178.6 236.4 186.9 239.2L217.7 249.4C211.9 255.2 208.4 263.2 208.4 272C208.4 289.7 222.7 304 240.4 304V304zM422.9 249.2L453.1 239.2C461.4 236.4 465.1 227.3 463.2 218.9C460.4 210.6 451.3 206 442.9 208.8L346.9 240.8C338.6 243.6 334 252.7 336.8 261.1C339.6 269.4 348.7 273.1 357.1 271.2L368.7 267.3C368.5 268.8 368.4 270.4 368.4 271.1C368.4 289.7 382.7 303.1 400.4 303.1C418 303.1 432.4 289.7 432.4 271.1C432.4 263.1 428.7 255 422.9 249.2L422.9 249.2z"/></svg>

<svg xmlns="http://www.w3.org/2000/svg" viewBox="0 0 640 512"><!--! Font Awesome Pro 6.5.1 by @fontawesome - https://fontawesome.com License - https://fontawesome.com/license (Commercial License) Copyright 2023 Fonticons, Inc. --><defs><style>.fa-secondary{opacity:.4}</style></defs><path class="fa-secondary" d="M64 256a256 256 0 1 1 512 0A256 256 0 1 1 64 256zM402.7 411.9c6.6-5.9 7.1-16 1.2-22.6C387.8 371.4 359.7 352 320 352s-67.8 19.4-83.9 37.3c-5.9 6.6-5.4 16.7 1.2 22.6s16.7 5.4 22.6-1.2c11.7-13 31.6-26.7 60.1-26.7s48.4 13.7 60.1 26.7c5.9 6.6 16 7.1 22.6 1.2zM240.4 304c17.7 0 32-14.3 32-32c0-1.5-.1-3-.3-4.4l10.9 3.6c8.4 2.8 17.4-1.7 20.2-10.1s-1.7-17.4-10.1-20.2l-96-32c-8.4-2.8-17.4 1.7-20.2 10.1s1.7 17.4 10.1 20.2l30.7 10.2c-5.8 5.8-9.3 13.8-9.3 22.6c0 17.7 14.3 32 32 32zm192-32c0-8.9-3.6-17-9.5-22.8l30.2-10.1c8.4-2.8 12.9-11.9 10.1-20.2s-11.9-12.9-20.2-10.1l-96 32c-8.4 2.8-12.9 11.9-10.1 20.2s11.9 12.9 20.2 10.1l11.7-3.9c-.2 1.5-.3 3.1-.3 4.7c0 17.7 14.3 32 32 32s32-14.3 32-32z"/><path class="fa-primary" d="M566.1 185.1C550.5 131 517.6 84.3 473.8 51.3c17-3.3 39.7-8.6 63-15.5c29.8-8.9 59.1-20.2 78.4-33.1c5.4-3.6 12.4-3.6 17.8 0s8.1 10.1 6.8 16.4c-6.2 31-29.3 106.6-73.6 166zM103.3 35.8c23.3 7 46 12.2 63 15.5c-43.8 33-76.7 79.7-92.3 133.8C29.6 125.8 6.5 50.1 .3 19.1C-1 12.8 1.7 6.3 7.1 2.7s12.4-3.6 17.8 0c19.3 12.9 48.5 24.2 78.4 33.1zM240.4 304c-17.7 0-32-14.3-32-32c0-8.8 3.6-16.8 9.3-22.6l-30.7-10.2c-8.4-2.8-12.9-11.9-10.1-20.2s11.9-12.9 20.2-10.1l96 32c8.4 2.8 12.9 11.9 10.1 20.2s-11.9 12.9-20.2 10.1l-10.9-3.6c.2 1.5 .3 2.9 .3 4.4c0 17.7-14.3 32-32 32zm192-32c0 17.7-14.3 32-32 32s-32-14.3-32-32c0-1.6 .1-3.2 .3-4.7l-11.7 3.9c-8.4 2.8-17.4-1.7-20.2-10.1s1.7-17.4 10.1-20.2l96-32c8.4-2.8 17.4 1.7 20.2 10.1s-1.7 17.4-10.1 20.2l-30.2 10.1c5.9 5.8 9.5 13.9 9.5 22.8z"/></svg>
